X:1
T:Title
%%score 1 2
L:1/8
Q:1/4=85
M:2/4
K:Ab
V:1 treble nm="Grand Piano, Soprano"
V:2 bass nm="Choir Pad, Oh, Won�t You Be a Christian"
V:1
 [CE][Ec]- [Ec]/[DB]/[Fd] | [Ec][Ec] [DB][CA] | [B,G] [CA]3- | [CA]4 | [CE][DF]- [DF]/[EG]/[FA] | %5
w: By~Alfred~Arthur~Graley * * * *|||||
 [GB][Ac] [Bd][ce] | [Ac] [GB]3- | [GB]4 | [GB][Ac]- [Ac]/[GB]/[Ac] | [Bd][ce] [Ac][Ac] | %10
w: |||||
 [GB][FA] [FA][=EG] | [=EG]F F[FA] | [DF]E [EA][CA] | [Ec][Ec] [DB][CA] | [B,G] [CA]3- | [CA]4 |] %16
w: ||||||
V:2
 A,A,- A,/A,/A, | A,E, E,E, | E, A,,3- | A,,4 | A,,D,- D,/D,/D, | D,C, B,,A,, | C, E,3- | E,4 | %8
 E,A,- A,/A,/A, | A,A, A,A, | E,F, F,C, | C,D, D,D, | D,C, C,A,, | A,,E, E,E, | E, A,,3- | A,,4 |] %16

